img/icons/social/ln.svg

<svg width="20" height="20" viewBox="0 0 20 20" fill="none" xmlns="http://www.w3.org/2000/svg">
<path d="M18.1857 0.655273H2.08623C1.31502 0.655273 0.691406 1.26412 0.691406 2.01689V18.1828C0.691406 18.9356 1.31502 19.5481 2.08623 19.5481H18.1857C18.9569 19.5481 19.5842 18.9356 19.5842 18.1865V2.01689C19.5842 1.26412 18.9569 0.655273 18.1857 0.655273ZM6.29653 16.7548H3.49212V7.7364H6.29653V16.7548ZM4.89432 6.50763C3.99396 6.50763 3.26703 5.78069 3.26703 4.88402C3.26703 3.98735 3.99396 3.26042 4.89432 3.26042C5.791 3.26042 6.51793 3.98735 6.51793 4.88402C6.51793 5.777 5.791 6.50763 4.89432 6.50763ZM16.7909 16.7548H13.9902V12.371C13.9902 11.3268 13.9717 9.97992 12.5326 9.97992C11.0751 9.97992 10.8537 11.1201 10.8537 12.2972V16.7548H8.05666V7.7364H10.743V8.96886H10.7799C11.1526 8.26038 12.0677 7.51131 13.4293 7.51131C16.2669 7.51131 16.7909 9.37845 16.7909 11.8065V16.7548Z" fill="white"/>
</svg>

<svg width="20" height="20" fill="none" xmlns="http://www.w3.org/2000/svg"><path d="M18.186.655h-16.1c-.771 0-1.395.61-1.395 1.362v16.166c0 .753.624 1.365 1.395 1.365h16.1c.77 0 1.398-.612 1.398-1.361V2.016c0-.753-.627-1.362-1.398-1.362zm-11.89 16.1H3.493V7.736h2.805v9.019zM4.895 6.508a1.624 1.624 0 11-.005-3.25 1.624 1.624 0 01.005 3.25zm11.897 10.247h-2.8V12.37c0-1.044-.02-2.391-1.458-2.391-1.458 0-1.68 1.14-1.68 2.317v4.458H8.058V7.736h2.686V8.97h.037c.373-.709 1.288-1.458 2.65-1.458 2.837 0 3.36 1.867 3.36 4.295v4.949z" fill="#fff"/></svg>
